**kern
*staff1
*head[head1]
*solo[solo1]
*solo[solo2]
*solo[solo3]
=1-
*clefG2
*k[]
*B-:
*M4/4
1r
=2
1r
=3
1r
=4
1r
=5
1r
=6
1r
=7
1r
=8
2r
4r
8r
*>head1
{[8dd\
=9
4dd\]
8f/L
[8b-/J
4b-\]}
8r
8dd\
=10||
24cc\LL
24dd\
24cc\JJ
8b-/L
8a/
8g/J
8g-\L
16cc#\L
16dd\JJ
16ccn\LL
16cc#\J
[8dd\J
=11
4dd\]
8f/L
[8b-/J
4b-\]}
8r
8dd\
=12
24cc\LL
24dd\
24cc\JJ
8b-/L
8a-/
8c/J
8g/L
8f/
8b-/
[8dd-/J
=13
8dd-\]
24b-/LL
24a-/
24f/JJ
8e-/L
[8b-/J
4b-\]}
4r
=14
4r
{8ee\L
8ee-\J
24dd-\LL
24ee-\
24dd-\JJ
8b-\L
8cc\
8b-\J
=15
24a/LL
24b-/
24a/JJ
8f/L
8d/
8B-/J
2a/}
=16
4r
{16a-/LL
16an/
16a-/
16g-/JJ
8e/L
8B-/
8Bn/
8d/J
=17
8c/L
8B/
8c/
8d/J
8e-/L
8f/
8f#/
8g/J
=18
8b-/L
8g/
8e-/
8c/J
24a-/LL
24b-/
24a-/JJ
8g-/L
8B/
8A/J
=19
8B-/L
8e-/J
12c/L
12c#/
[12d/J
2d/]}
=20
2r
4r
8r
*>solo1
{8f/
=21
8b-\L
8ee-\
8dd\
8b-\J
8r
24een\LL
24dd\
24cc\JJ
8bn/L
8a/J
=22||
8g/L
8g-/
8e/J
8r
8c/L
8e-/
8c/
8c#/J
=23
8d/L
8B-/
8G/
8A/J
2c/}
=24
4r
{16r
16G/
24c/LL
24e-/
24g/JJ
8b-/L
8g-/
8d/
8B-/J
=25
[4f/
8f/L]
16e-/L
16B-/JJ
8d-/L
[8G/J
4G/]}
=26
2r
4r
{16dd-\LL
16ee-\
16dd-\
16cc\JJ
=27
16b-/LL
16g-/
16e-/
16c/JJ
16d/LL
16B-/
16G/
16A/JJ
16c/LL
16B-/
16A-/
16B-/JJ
16d/LL
16f/
16g-/
16a/JJ
=28
16cc/LL
16a/
16b/
16a-/JJ
16e/LL
16c#/JJ
24b-\LL
24b-\
24an\JJ
24g/LL
24g/
24g-/JJ
16f/LL
16e/JJ
16e-/LL
16F#/
16G/
16B-/JJ
=29
16d/LL
16c/
16B-/
16G/J
8A/
[8E-/J
2E-/]}
=30
8r
{24b-\LL
24b-\
24b-\JJ
[4gg\
8gg\L]
8ee-\J
16een\LL
16cc\
16dd-\
16a\JJ
=31
16b-/LL
16f#/
16g/
16e-/JJ
16en/LL
16c/
16d-/
16A/JJ
16B-/LL
16F#/
16G/JJ}
16r
4r
=32
8r
*>solo2
{4d/
8f/
8b-\L
8cc\
8a\
8b-\J
=33
8cc\L
8b-\
8a\
8b-\J
12dd\L
12ee-\
12een\J
8ff\L
8dd\J
=34||
8ee-/L
8a/J}
4r
2r
=35
2r
{8dd\L
16ee-\L
16dd\JJ
16cc\LL
16b\
16b-\
16a\JJ
=36
16a-/LL
16c/
16c#/
16d/JJ
16g/LL
16g-/
16e/
16B-/JJ
16Bn/LL
16d-/
16A-/
16G-/JJ
16Gn/LL
16B-/
16cn/
16dn/JJ
=37
16f/LL
16e-/
16B-/
16G/JJ
4B-/
4r
16f/LL
16e-/
16B-/
16G/JJ
=38
4B-/}
4r
{16f/LL
16cc/
16B-/
16G/JJ
4B-/
=39
4r
8r
16f/LL
16e-/JJ
16d/LL
16c/
16G/
16A/JJ
16c/LL
16B-/
16A/
16B-/JJ
=40
16d/LL
16f/
16g/
16a/JJ
16cc/LL
16a/
16b/
16a-/JJ
8e/L
16b-/L
16an/JJ
16g/LL
16g-/
16f/
16e/JJ
=41
16e-/LL
16F#/
16G/
16B-/JJ
16d/LL
16c/
16B-/
16G/JJ
2A/}
=42
8r
{8f\L
8b-\
[8dd\J
8dd\L]
16ee-\L
16dd\JJ
20b-/LL
20a-/
20f/
20e-/
20B-/JJ
=43
4.d/
[8f/
2f/]}
=44
2r
4r
8r
*>solo3
{8b-\
=45
4dd\
8gg\L
8gg-\J
8ff\L
8dd\
8ee-\
[8dd\J
=46||
8dd\]
32cc/LLL
32b-/
32a/
32g/JJJ
4g-/
8r
8A/L
8c/
8e-/J
=47
8d/L
8B-/J
4G/
8c/L
8B-/J
16A-/LL
16c/
16e-/
16g/JJ
=48
8b-/L
[8g-/J
4g-/]}
2r
=49
8r
{[8f/
2f/]
8e-/L
8B-/J
=50
4f/
12d-/L
12B-/
12F/J
6G-/
6f/
6e-/
=51
4.d/
8a/}
4r
8r
{8c/
=52
24a-/LL
24an/
24a-/JJ
8g-/L
8e/
8A-/J
8B/L
8e-/
8d-/
8B/J
=53
4.c/
8b-\
4r
8r
[8c/
=54
4c/]
8b-/L
8c/J
4c#/
8b-/L
8c#/J
=55
4.d/
8a/
2r
=56
8r
16cc/LL
16a/JJ
16b/LL
16a-/
16e/
16d-/JJ
16b-/LL
16an/
16g/
16f/JJ
16e-/LL
16G/
16B-/
16d-/JJ
=57
16c/LL
16B-/JJ
32A/LLL
32c/
32e-/
32g/JJJ
4f/}
2r
==
*-
